; generated by PrusaSlicer 2.5.0+win64 on 2023-11-09 at 19:10:24 UTC

; 

; external perimeters extrusion width = 0.42mm
; perimeters extrusion width = 0.44mm
; infill extrusion width = 0.44mm
; solid infill extrusion width = 0.44mm
; top infill extrusion width = 0.40mm
; support material extrusion width = 0.36mm
; first layer extrusion width = 0.42mm

M201 X500 Y500 Z100 E5000 ; sets maximum accelerations, mm/sec^2
M203 X500 Y500 Z10 E60 ; sets maximum feedrates, mm / sec
M204 P500 R1000 T500 ; sets acceleration (P, T) and retract acceleration (R), mm/sec^2
M205 X8.00 Y8.00 Z0.40 E5.00 ; sets the jerk limits, mm/sec
M205 S0 T0 ; sets the minimum extruding and travel feed rate, mm/sec
M107
;TYPE:Custom
G90 ; use absolute coordinates
M83 ; extruder relative mode
M104 S150 ; set temporary nozzle temp to prevent oozing during homing
M140 S60 ; set final bed temp
G4 S30 ; allow partial nozzle warmup
G28 ; home all axis
G1 Z50 F240
G1 X2.0 Y10 F3000
M104 S220 ; set final nozzle temp
M190 S60 ; wait for bed temp to stabilize
M109 S220 ; wait for nozzle temp to stabilize
G1 Z0.28 F240
G92 E0
G1 X2.0 Y140 E10 F1500 ; prime the nozzle
G1 X2.3 Y140 F5000
G92 E0
G1 X2.3 Y10 E10 F1200 ; prime the nozzle
G92 E0
G21 ; set units to millimeters
G90 ; use absolute coordinates
M83 ; use relative distances for extrusion
; Filament gcode
M107
;LAYER_CHANGE
;Z:0.2
;HEIGHT:0.2
;BEFORE_LAYER_CHANGE
G92 E0
;0.2


G1 E-5 F3600
G1 Z.2 F9000
;AFTER_LAYER_CHANGE
;0.2
G1 X93.978 Y70.68
G1 E5 F2400
M204 S500
;TYPE:Skirt/Brim
;WIDTH:0.42
G1 F1200
G1 X95.068 Y69.466 E.05115
G1 X96.961 Y68.886 E.06207
G1 X102.119 Y68.892 E.16173
G1 X130.703 Y70.629 E.89789
G1 X132.26 Y71.119 E.05115
G1 X133.405 Y72.28 E.05115
G1 X133.876 Y74 E.0559
G1 X133.876 Y157 E2.60241
G1 X133.482 Y158.583 E.05115
G1 X132.391 Y159.797 E.05115
G1 X130.703 Y160.371 E.0559
G1 X101.914 Y162.114 E.90431
G1 X96.961 Y162.114 E.15531
G1 X95.378 Y161.72 E.05115
G1 X94.164 Y160.63 E.05115
G1 X93.584 Y158.737 E.06207
G1 X93.584 Y72.263 E2.71134
G1 X93.964 Y70.738 E.04927
; printing object galactic_unicorn_doosje_test.stl id:0 copy 0
G1 E-3.5 F3600
;WIPE_START
G1 F7200
G1 X95.068 Y69.466 E-.80023
G1 X96.326 Y69.081 E-.62477
;WIPE_END
G1 E-.075 F3600
G1 X101.914 Y73.538 F9000
G1 E5 F2400
;TYPE:Support material
G1 F1200
G1 X100.31 Y73.538 E.0503
G1 X100.039 Y73.809 E.012
G1 X100.039 Y85.942 E.38044
G1 X96.961 Y85.942 E.09652
G1 X96.961 Y72.263 E.4289
G1 X101.914 Y72.263 E.15531
G1 X101.914 Y73.481 E.03821
G1 X101.255 Y73.368 F9000
G1 F1200
G1 X101.255 Y72.602 E.02402
G1 X100.836 Y72.602 E.01314
G1 X100.836 Y73.199 E.0187
G1 X100.417 Y73.199 E.01314
G1 X100.417 Y72.602 E.0187
G1 X99.998 Y72.602 E.01314
G1 X99.998 Y73.37 E.02408
G1 X99.7 Y73.668 E.0132
G1 X99.7 Y85.603 E.3742
G1 X99.579 Y85.603 E.0038
G1 X99.579 Y72.602 E.40762
G1 X99.16 Y72.602 E.01314
G1 X99.16 Y85.603 E.40762
G1 X98.741 Y85.603 E.01314
G1 X98.741 Y72.602 E.40762
G1 X98.322 Y72.602 E.01314
G1 X98.322 Y85.603 E.40762
G1 X97.903 Y85.603 E.01314
G1 X97.903 Y72.602 E.40762
G1 X97.484 Y72.602 E.01314
G1 X97.484 Y85.772 E.41294
G1 E-3.5 F3600
;WIPE_START
G1 F7200
G1 X97.484 Y82.772 E-1.425
;WIPE_END
G1 E-.075 F3600
G1 X100.039 Y157.191 F9000
G1 E5 F2400
G1 F1200
G1 X100.31 Y157.462 E.012
G1 X101.914 Y157.462 E.0503
G1 X101.914 Y158.737 E.03998
G1 X96.961 Y158.737 E.15531
G1 X96.961 Y145.058 E.4289
G1 X100.039 Y145.058 E.09652
G1 X100.039 Y157.135 E.37866
G1 X101.255 Y158.567 F9000
G1 F1200
G1 X101.255 Y157.801 E.02402
G1 X100.836 Y157.801 E.01314
G1 X100.836 Y158.398 E.0187
G1 X100.417 Y158.398 E.01314
G1 X100.417 Y157.801 E.0187
G1 X100.17 Y157.801 E.00775
G1 X99.998 Y157.63 E.00761
G1 X99.998 Y158.398 E.02408
G1 X99.579 Y158.398 E.01314
G1 X99.579 Y145.397 E.40762
G1 X99.16 Y145.397 E.01314
G1 X99.16 Y158.398 E.40762
G1 X98.741 Y158.398 E.01314
G1 X98.741 Y145.397 E.40762
G1 X98.322 Y145.397 E.01314
G1 X98.322 Y158.398 E.40762
G1 X97.903 Y158.398 E.01314
G1 X97.903 Y145.397 E.40762
G1 X97.484 Y145.397 E.01314
G1 X97.484 Y158.567 E.41294
G1 E-3.5 F3600
;WIPE_START
G1 F7200
G1 X97.484 Y155.567 E-1.425
;WIPE_END
G1 E-.075 F3600
G1 X101.566 Y155.936 F9000
G1 E5 F2400
;TYPE:Perimeter
;WIDTH:0.419999
G1 F1200
G1 X101.566 Y75.064 E2.53567
G1 X129.434 Y75.064 E.8738
G1 X129.434 Y155.936 E2.53567
G1 X101.626 Y155.936 E.87192
G1 X101.189 Y156.313 F9000
G1 F1200
G1 X101.189 Y74.687 E2.55932
G1 X129.811 Y74.687 E.89745
G1 X129.811 Y156.313 E2.55932
G1 X101.249 Y156.313 E.89557
G1 X100.811 Y156.69 F9000
;TYPE:External perimeter
G1 F1200
G1 X100.811 Y74.31 E2.58296
G1 X130.189 Y74.31 E.92109
G1 X130.189 Y156.69 E2.58296
G1 X100.871 Y156.69 E.91921
G1 X100.857 Y156.293 F9000
G1 E-3.5 F3600
;WIPE_START
G1 F7200
G1 X100.869 Y153.69 E-1.425
;WIPE_END
G1 E-.075 F3600
G1 X129.314 Y75.948 F9000
G1 E5 F2400
;TYPE:Solid infill
;WIDTH:0.420275
G1 F1200
G1 X128.721 Y75.354 E.02632
G1 X128.187 Y75.354 E.01674
G1 X129.144 Y76.312 E.04247
G1 X129.144 Y76.845 E.01674
G1 X127.653 Y75.354 E.06615
G1 X127.12 Y75.354 E.01674
G1 X129.144 Y77.379 E.08983
G1 X129.144 Y77.913 E.01674
G1 X126.586 Y75.354 E.11351
G1 X126.052 Y75.354 E.01674
G1 X129.144 Y78.446 E.1372
G1 X129.144 Y78.98 E.01674
G1 X125.519 Y75.354 E.16088
G1 X124.985 Y75.354 E.01674
G1 X129.144 Y79.514 E.18456
G1 X129.144 Y80.047 E.01674
G1 X124.451 Y75.354 E.20824
G1 X123.918 Y75.354 E.01674
G1 X129.144 Y80.581 E.23192
G1 X129.144 Y81.115 E.01674
G1 X123.384 Y75.354 E.2556
G1 X122.85 Y75.354 E.01674
G1 X129.144 Y81.648 E.27928
G1 X129.144 Y82.182 E.01674
G1 X122.317 Y75.354 E.30296
G1 X121.783 Y75.354 E.01674
G1 X129.144 Y82.716 E.32664
G1 X129.144 Y83.249 E.01674
G1 X121.249 Y75.354 E.35032
G1 X120.716 Y75.354 E.01674
G1 X129.144 Y83.783 E.374
G1 X129.144 Y84.317 E.01674
G1 X120.182 Y75.354 E.39768
G1 X119.648 Y75.354 E.01674
G1 X129.144 Y84.85 E.42136
G1 X129.144 Y85.384 E.01674
G1 X119.115 Y75.354 E.44504
G1 X118.581 Y75.354 E.01674
G1 X129.144 Y85.918 E.46872
G1 X129.144 Y86.451 E.01674
G1 X118.047 Y75.354 E.49241
G1 X117.514 Y75.354 E.01674
G1 X129.144 Y86.985 E.51609
G1 X129.144 Y87.519 E.01674
G1 X116.98 Y75.354 E.53977
G1 X116.446 Y75.354 E.01674
G1 X129.144 Y88.052 E.56345
G1 X129.144 Y88.586 E.01674
G1 X115.913 Y75.354 E.58713
G1 X115.379 Y75.354 E.01674
G1 X129.144 Y89.119 E.61081
G1 X129.144 Y89.653 E.01674
G1 X114.845 Y75.354 E.63449
G1 X114.312 Y75.354 E.01674
G1 X129.144 Y90.187 E.65817
G1 X129.144 Y90.72 E.01674
G1 X113.778 Y75.354 E.68185
G1 X113.244 Y75.354 E.01674
G1 X129.144 Y91.254 E.70553
G1 X129.144 Y91.788 E.01674
G1 X112.711 Y75.354 E.72921
G1 X112.177 Y75.354 E.01674
G1 X129.144 Y92.321 E.75289
G1 X129.144 Y92.855 E.01674
G1 X111.643 Y75.354 E.77657
G1 X111.11 Y75.354 E.01674
G1 X129.144 Y93.389 E.80025
G1 X129.144 Y93.922 E.01674
G1 X110.576 Y75.354 E.82393
G1 X110.042 Y75.354 E.01674
G1 X129.144 Y94.456 E.84762
G1 X129.144 Y94.99 E.01674
G1 X109.509 Y75.354 E.8713
G1 X108.975 Y75.354 E.01674
G1 X129.144 Y95.523 E.89498
G1 X129.144 Y96.057 E.01674
G1 X108.441 Y75.354 E.91866
G1 X107.908 Y75.354 E.01674
G1 X129.144 Y96.591 E.94234
G1 X129.144 Y97.124 E.01674
G1 X107.374 Y75.354 E.96602
G1 X106.84 Y75.354 E.01674
G1 X129.144 Y97.658 E.9897
G1 X129.144 Y98.192 E.01674
G1 X106.307 Y75.354 E1.01338
G1 X105.773 Y75.354 E.01674
G1 X129.144 Y98.725 E1.03706
G1 X129.144 Y99.259 E.01674
G1 X105.239 Y75.354 E1.06074
G1 X104.706 Y75.354 E.01674
G1 X129.144 Y99.793 E1.08442
G1 X129.144 Y100.326 E.01674
G1 X104.172 Y75.354 E1.1081
G1 X103.638 Y75.354 E.01674
G1 X129.144 Y100.86 E1.13178
G1 X129.144 Y101.394 E.01674
G1 X103.105 Y75.354 E1.15546
G1 X102.571 Y75.354 E.01674
G1 X129.144 Y101.927 E1.17915
G1 X129.144 Y102.461 E.01674
G1 X102.037 Y75.354 E1.20283
G1 X101.856 Y75.354 E.00569
G1 X101.856 Y75.707 E.01105
G1 X129.144 Y102.995 E1.21088
G1 X129.144 Y103.528 E.01674
G1 X101.856 Y76.24 E1.21088
G1 X101.856 Y76.774 E.01674
G1 X129.144 Y104.062 E1.21088
G1 X129.144 Y104.596 E.01674
G1 X101.856 Y77.308 E1.21088
G1 X101.856 Y77.841 E.01674
G1 X129.144 Y105.129 E1.21088
G1 X129.144 Y105.663 E.01674
G1 X101.856 Y78.375 E1.21088
G1 X101.856 Y78.909 E.01674
G1 X129.144 Y106.197 E1.21088
G1 X129.144 Y106.73 E.01674
G1 X101.856 Y79.442 E1.21088
G1 X101.856 Y79.976 E.01674
G1 X129.144 Y107.264 E1.21088
G1 X129.144 Y107.798 E.01674
G1 X101.856 Y80.51 E1.21088
G1 X101.856 Y81.043 E.01674
G1 X129.144 Y108.331 E1.21088
G1 X129.144 Y108.865 E.01674
G1 X101.856 Y81.577 E1.21088
G1 X101.856 Y82.111 E.01674
G1 X129.144 Y109.399 E1.21088
G1 X129.144 Y109.932 E.01674
G1 X101.856 Y82.644 E1.21088
G1 X101.856 Y83.178 E.01674
G1 X129.144 Y110.466 E1.21088
G1 X129.144 Y111 E.01674
G1 X101.856 Y83.712 E1.21088
G1 X101.856 Y84.245 E.01674
G1 X129.144 Y111.533 E1.21088
G1 X129.144 Y112.067 E.01674
G1 X101.856 Y84.779 E1.21088
G1 X101.856 Y85.313 E.01674
G1 X129.144 Y112.601 E1.21088
G1 X129.144 Y113.134 E.01674
G1 X101.856 Y85.846 E1.21088
G1 X101.856 Y86.38 E.01674
G1 X129.144 Y113.668 E1.21088
G1 X129.144 Y114.202 E.01674
G1 X101.856 Y86.914 E1.21088
G1 X101.856 Y87.447 E.01674
G1 X129.144 Y114.735 E1.21088
G1 X129.144 Y115.269 E.01674
G1 X101.856 Y87.981 E1.21088
G1 X101.856 Y88.515 E.01674
G1 X129.144 Y115.803 E1.21088
G1 X129.144 Y116.336 E.01674
G1 X101.856 Y89.048 E1.21088
G1 X101.856 Y89.582 E.01674
G1 X129.144 Y116.87 E1.21088
G1 X129.144 Y117.404 E.01674
G1 X101.856 Y90.115 E1.21088
G1 X101.856 Y90.649 E.01674
G1 X129.144 Y117.937 E1.21088
G1 X129.144 Y118.471 E.01674
G1 X101.856 Y91.183 E1.21088
G1 X101.856 Y91.716 E.01674
G1 X129.144 Y119.004 E1.21088
G1 X129.144 Y119.538 E.01674
G1 X101.856 Y92.25 E1.21088
G1 X101.856 Y92.784 E.01674
G1 X129.144 Y120.072 E1.21088
G1 X129.144 Y120.605 E.01674
G1 X101.856 Y93.317 E1.21088
G1 X101.856 Y93.851 E.01674
G1 X129.144 Y121.139 E1.21088
G1 X129.144 Y121.673 E.01674
G1 X101.856 Y94.385 E1.21088
G1 X101.856 Y94.918 E.01674
G1 X129.144 Y122.206 E1.21088
G1 X129.144 Y122.74 E.01674
G1 X101.856 Y95.452 E1.21088
G1 X101.856 Y95.986 E.01674
G1 X129.144 Y123.274 E1.21088
G1 X129.144 Y123.807 E.01674
G1 X101.856 Y96.519 E1.21088
G1 X101.856 Y97.053 E.01674
G1 X129.144 Y124.341 E1.21088
G1 X129.144 Y124.875 E.01674
G1 X101.856 Y97.587 E1.21088
G1 X101.856 Y98.12 E.01674
G1 X129.144 Y125.408 E1.21088
G1 X129.144 Y125.942 E.01674
G1 X101.856 Y98.654 E1.21088
G1 X101.856 Y99.188 E.01674
G1 X129.144 Y126.476 E1.21088
G1 X129.144 Y127.009 E.01674
G1 X101.856 Y99.721 E1.21088
G1 X101.856 Y100.255 E.01674
G1 X129.144 Y127.543 E1.21088
G1 X129.144 Y128.077 E.01674
G1 X101.856 Y100.789 E1.21088
G1 X101.856 Y101.322 E.01674
G1 X129.144 Y128.61 E1.21088
G1 X129.144 Y129.144 E.01674
G1 X101.856 Y101.856 E1.21088
G1 X101.856 Y102.39 E.01674
G1 X129.144 Y129.678 E1.21088
G1 X129.144 Y130.211 E.01674
G1 X101.856 Y102.923 E1.21088
G1 X101.856 Y103.457 E.01674
G1 X129.144 Y130.745 E1.21088
G1 X129.144 Y131.279 E.01674
G1 X101.856 Y103.991 E1.21088
G1 X101.856 Y104.524 E.01674
G1 X129.144 Y131.812 E1.21088
G1 X129.144 Y132.346 E.01674
G1 X101.856 Y105.058 E1.21088
G1 X101.856 Y105.592 E.01674
G1 X129.144 Y132.88 E1.21088
G1 X129.144 Y133.413 E.01674
G1 X101.856 Y106.125 E1.21088
G1 X101.856 Y106.659 E.01674
G1 X129.144 Y133.947 E1.21088
G1 X129.144 Y134.481 E.01674
G1 X101.856 Y107.193 E1.21088
G1 X101.856 Y107.726 E.01674
G1 X129.144 Y135.014 E1.21088
G1 X129.144 Y135.548 E.01674
G1 X101.856 Y108.26 E1.21088
G1 X101.856 Y108.794 E.01674
G1 X129.144 Y136.082 E1.21088
G1 X129.144 Y136.615 E.01674
G1 X101.856 Y109.327 E1.21088
G1 X101.856 Y109.861 E.01674
G1 X129.144 Y137.149 E1.21088
G1 X129.144 Y137.683 E.01674
G1 X101.856 Y110.395 E1.21088
G1 X101.856 Y110.928 E.01674
G1 X129.144 Y138.216 E1.21088
G1 X129.144 Y138.75 E.01674
G1 X101.856 Y111.462 E1.21088
G1 X101.856 Y111.996 E.01674
G1 X129.144 Y139.284 E1.21088
G1 X129.144 Y139.817 E.01674
G1 X101.856 Y112.529 E1.21088
G1 X101.856 Y113.063 E.01674
G1 X129.144 Y140.351 E1.21088
G1 X129.144 Y140.885 E.01674
G1 X101.856 Y113.597 E1.21088
G1 X101.856 Y114.13 E.01674
G1 X129.144 Y141.418 E1.21088
G1 X129.144 Y141.952 E.01674
G1 X101.856 Y114.664 E1.21088
G1 X101.856 Y115.198 E.01674
G1 X129.144 Y142.486 E1.21088
G1 X129.144 Y143.019 E.01674
G1 X101.856 Y115.731 E1.21088
G1 X101.856 Y116.265 E.01674
G1 X129.144 Y143.553 E1.21088
G1 X129.144 Y144.087 E.01674
G1 X101.856 Y116.799 E1.21088
G1 X101.856 Y117.332 E.01674
G1 X129.144 Y144.62 E1.21088
G1 X129.144 Y145.154 E.01674
G1 X101.856 Y117.866 E1.21088
G1 X101.856 Y118.4 E.01674
G1 X129.144 Y145.688 E1.21088
G1 X129.144 Y146.221 E.01674
G1 X101.856 Y118.933 E1.21088
G1 X101.856 Y119.467 E.01674
G1 X129.144 Y146.755 E1.21088
G1 X129.144 Y147.288 E.01674
G1 X101.856 Y120 E1.21088
G1 X101.856 Y120.534 E.01674
G1 X129.144 Y147.822 E1.21088
G1 X129.144 Y148.356 E.01674
G1 X101.856 Y121.068 E1.21088
G1 X101.856 Y121.601 E.01674
G1 X129.144 Y148.889 E1.21088
G1 X129.144 Y149.423 E.01674
G1 X101.856 Y122.135 E1.21088
G1 X101.856 Y122.669 E.01674
G1 X129.144 Y149.957 E1.21088
G1 X129.144 Y150.49 E.01674
G1 X101.856 Y123.202 E1.21088
G1 X101.856 Y123.736 E.01674
G1 X129.144 Y151.024 E1.21088
G1 X129.144 Y151.558 E.01674
G1 X101.856 Y124.27 E1.21088
G1 X101.856 Y124.803 E.01674
G1 X129.144 Y152.091 E1.21088
G1 X129.144 Y152.625 E.01674
G1 X101.856 Y125.337 E1.21088
G1 X101.856 Y125.871 E.01674
G1 X129.144 Y153.159 E1.21088
G1 X129.144 Y153.692 E.01674
G1 X101.856 Y126.404 E1.21088
G1 X101.856 Y126.938 E.01674
G1 X129.144 Y154.226 E1.21088
G1 X129.144 Y154.76 E.01674
G1 X101.856 Y127.472 E1.21088
G1 X101.856 Y128.005 E.01674
G1 X129.144 Y155.293 E1.21088
G1 X129.144 Y155.646 E.01105
G1 X128.962 Y155.646 E.0057
G1 X101.856 Y128.539 E1.20282
G1 X101.856 Y129.073 E.01674
G1 X128.429 Y155.646 E1.17914
G1 X127.895 Y155.646 E.01674
G1 X101.856 Y129.606 E1.15546
G1 X101.856 Y130.14 E.01674
G1 X127.361 Y155.646 E1.13178
G1 X126.828 Y155.646 E.01674
G1 X101.856 Y130.674 E1.1081
G1 X101.856 Y131.207 E.01674
G1 X126.294 Y155.646 E1.08442
G1 X125.76 Y155.646 E.01674
G1 X101.856 Y131.741 E1.06074
G1 X101.856 Y132.275 E.01674
G1 X125.227 Y155.646 E1.03706
G1 X124.693 Y155.646 E.01674
G1 X101.856 Y132.808 E1.01338
G1 X101.856 Y133.342 E.01674
G1 X124.16 Y155.646 E.9897
G1 X123.626 Y155.646 E.01674
G1 X101.856 Y133.876 E.96602
G1 X101.856 Y134.409 E.01674
G1 X123.092 Y155.646 E.94234
G1 X122.559 Y155.646 E.01674
G1 X101.856 Y134.943 E.91866
G1 X101.856 Y135.477 E.01674
G1 X122.025 Y155.646 E.89497
G1 X121.491 Y155.646 E.01674
G1 X101.856 Y136.01 E.87129
G1 X101.856 Y136.544 E.01674
G1 X120.958 Y155.646 E.84761
G1 X120.424 Y155.646 E.01674
G1 X101.856 Y137.078 E.82393
G1 X101.856 Y137.611 E.01674
G1 X119.89 Y155.646 E.80025
G1 X119.357 Y155.646 E.01674
G1 X101.856 Y138.145 E.77657
G1 X101.856 Y138.679 E.01674
G1 X118.823 Y155.646 E.75289
G1 X118.289 Y155.646 E.01674
G1 X101.856 Y139.212 E.72921
G1 X101.856 Y139.746 E.01674
G1 X117.756 Y155.646 E.70553
G1 X117.222 Y155.646 E.01674
G1 X101.856 Y140.28 E.68185
G1 X101.856 Y140.813 E.01674
G1 X116.688 Y155.646 E.65817
G1 X116.155 Y155.646 E.01674
G1 X101.856 Y141.347 E.63449
G1 X101.856 Y141.881 E.01674
G1 X115.621 Y155.646 E.61081
G1 X115.087 Y155.646 E.01674
G1 X101.856 Y142.414 E.58713
G1 X101.856 Y142.948 E.01674
G1 X114.554 Y155.646 E.56344
G1 X114.02 Y155.646 E.01674
G1 X101.856 Y143.482 E.53976
G1 X101.856 Y144.015 E.01674
G1 X113.486 Y155.646 E.51608
G1 X112.953 Y155.646 E.01674
G1 X101.856 Y144.549 E.4924
G1 X101.856 Y145.083 E.01674
G1 X112.419 Y155.646 E.46872
G1 X111.885 Y155.646 E.01674
G1 X101.856 Y145.616 E.44504
G1 X101.856 Y146.15 E.01674
G1 X111.352 Y155.646 E.42136
G1 X110.818 Y155.646 E.01674
G1 X101.856 Y146.684 E.39768
G1 X101.856 Y147.217 E.01674
G1 X110.284 Y155.646 E.374
G1 X109.751 Y155.646 E.01674
G1 X101.856 Y147.751 E.35032
G1 X101.856 Y148.284 E.01674
G1 X109.217 Y155.646 E.32664
G1 X108.683 Y155.646 E.01674
G1 X101.856 Y148.818 E.30296
G1 X101.856 Y149.352 E.01674
G1 X108.15 Y155.646 E.27928
G1 X107.616 Y155.646 E.01674
G1 X101.856 Y149.885 E.2556
G1 X101.856 Y150.419 E.01674
G1 X107.082 Y155.646 E.23192
G1 X106.549 Y155.646 E.01674
G1 X101.856 Y150.953 E.20823
G1 X101.856 Y151.486 E.01674
