; generated by PrusaSlicer 2.5.0+win64 on 2023-10-12 at 17:50:42 UTC


;
;

;
;
; 

; external perimeters extrusion width = 0.42mm
; perimeters extrusion width = 0.44mm
; infill extrusion width = 0.44mm
; solid infill extrusion width = 0.44mm
; top infill extrusion width = 0.40mm
; support material extrusion width = 0.36mm
; first layer extrusion width = 0.42mm

; external perimeters extrusion width = 0.42mm
; perimeters extrusion width = 0.44mm
; infill extrusion width = 0.44mm
; solid infill extrusion width = 0.44mm
; top infill extrusion width = 0.40mm
; support material extrusion width = 0.36mm
; first layer extrusion width = 0.42mm

M73 P0 R30
M107
;TYPE:Custom
G90 ; use absolute coordinates
M83 ; extruder relative mode
M140 S60 ; set final bed temp
M104 S150 ; set temporary nozzle temp to prevent oozing during homing and auto bed leveling
G4 S10 ; allow partial nozzle warmup
G28 ; home all axis
G29 ; auto bed levelling
G1 Z50 F240
G1 X2 Y10 F3000
M104 S220 ; set final nozzle temp
M190 S60 ; wait for bed temp to stabilize
M109 S220 ; wait for nozzle temp to stabilize
G1 Z0.28 F240
G92 E0
G1 Y140 E10 F1500 ; prime the nozzle
M73 P1 R30
G1 X2.3 F5000
G92 E0
G1 Y10 E10 F1200 ; prime the nozzle
G92 E0
G21 ; set units to millimeters
G90 ; use absolute coordinates
M83 ; use relative distances for extrusion
; Filament gcode
M107
;LAYER_CHANGE
;Z:0.2
;HEIGHT:0.2
;BEFORE_LAYER_CHANGE
G92 E0
;0.2


G1 E-5 F3600
M73 P2 R30
G1 Z.2 F9000
;AFTER_LAYER_CHANGE
;0.2
G1 X31.87 Y109.55
G1 E5 F2400
M204 S500
;TYPE:Skirt/Brim
;WIDTH:0.42
G1 F1200
G1 X51.87 Y109.55 E.62709
G1 X53.453 Y109.945 E.05115
G1 X54.667 Y111.035 E.05115
G1 X55.247 Y112.928 E.06207
G1 X55.247 Y148.967 E1.12998
G1 X54.755 Y191.456 E1.33233
G1 X54.342 Y193.035 E.05115
M73 P2 R29
G1 X53.238 Y194.236 E.05115
G1 X51.378 Y194.794 E.0609
G1 X31.378 Y194.794 E.62709
G1 X29.795 Y194.4 E.05115
G1 X28.581 Y193.31 E.05115
G1 X28.001 Y191.417 E.06207
G1 X28.001 Y155.378 E1.12998
G1 X28.493 Y112.888 E1.33233
G1 X28.906 Y111.31 E.05115
G1 X30.01 Y110.109 E.05115
G1 X31.813 Y109.568 E.05902
G1 E-3.5 F3600
;WIPE_START
G1 F7200
G1 X34.813 Y109.565 E-1.425
;WIPE_END
G1 E-.075 F3600
G1 X33.311 Y114.369 F9000
G1 E5 F2400
;TYPE:Perimeter
;WIDTH:0.419999
G1 F1200
G1 X50.429 Y114.369 E.53671
G1 X50.429 Y147.486 E1.03838
G1 X33.311 Y147.486 E.53671
G1 X33.311 Y114.429 E1.03649
G1 X32.934 Y113.992 F9000
G1 F1200
G1 X50.806 Y113.992 E.56035
G1 X50.806 Y147.863 E1.06202
M73 P3 R29
G1 X32.934 Y147.863 E.56035
G1 X32.934 Y114.052 E1.06014
G1 X32.557 Y113.615 F9000
G1 F1200
G1 X51.183 Y113.615 E.584
G1 X51.183 Y148.24 E1.08567
G1 X32.557 Y148.24 E.584
G1 X32.557 Y113.675 E1.08379
G1 X32.18 Y113.238 F9000
;TYPE:External perimeter
G1 F1200
G1 X51.56 Y113.238 E.60765
G1 X51.56 Y148.618 E1.10931
G1 X32.18 Y148.618 E.60765
G1 X32.18 Y113.298 E1.10743
G1 X32.555 Y113.377 F9000
G1 E-3.5 F3600
;WIPE_START
G1 F7200
G1 X35.18 Y113.288 E-1.425
;WIPE_END
G1 E-.075 F3600
G1 X49.542 Y114.489 F9000
G1 E5 F2400
;TYPE:Solid infill
;WIDTH:0.421776
G1 F1200
G1 X50.139 Y115.086 E.02657
G1 X50.139 Y115.622 E.01688
G1 X49.176 Y114.659 E.04288
G1 X48.64 Y114.659 E.01688
G1 X50.139 Y116.157 E.06675
G1 X50.139 Y116.693 E.01688
G1 X48.104 Y114.659 E.09062
G1 X47.569 Y114.659 E.01688
G1 X50.139 Y117.229 E.11449
G1 X50.139 Y117.765 E.01688
G1 X47.033 Y114.659 E.13836
G1 X46.497 Y114.659 E.01688
G1 X50.139 Y118.3 E.16223
G1 X50.139 Y118.836 E.01688
G1 X45.961 Y114.659 E.18609
G1 X45.426 Y114.659 E.01688
G1 X50.139 Y119.372 E.20996
G1 X50.139 Y119.908 E.01688
M73 P4 R29
G1 X44.89 Y114.659 E.23383
G1 X44.354 Y114.659 E.01688
G1 X50.139 Y120.444 E.2577
G1 X50.139 Y120.979 E.01688
G1 X43.818 Y114.659 E.28157
G1 X43.282 Y114.659 E.01688
G1 X50.139 Y121.515 E.30544
G1 X50.139 Y122.051 E.01688
G1 X42.747 Y114.659 E.32931
G1 X42.211 Y114.659 E.01688
G1 X50.139 Y122.587 E.35318
G1 X50.139 Y123.123 E.01688
G1 X41.675 Y114.659 E.37705
G1 X41.139 Y114.659 E.01688
G1 X50.139 Y123.658 E.40092
G1 X50.139 Y124.194 E.01688
G1 X40.604 Y114.659 E.42479
G1 X40.068 Y114.659 E.01688
G1 X50.139 Y124.73 E.44866
G1 X50.139 Y125.266 E.01688
G1 X39.532 Y114.659 E.47253
G1 X38.996 Y114.659 E.01688
G1 X50.139 Y125.801 E.4964
G1 X50.139 Y126.337 E.01688
G1 X38.46 Y114.659 E.52027
G1 X37.925 Y114.659 E.01688
G1 X50.139 Y126.873 E.54414
G1 X50.139 Y127.409 E.01688
G1 X37.389 Y114.659 E.56801
G1 X36.853 Y114.659 E.01688
G1 X50.139 Y127.945 E.59188
G1 X50.139 Y128.48 E.01688
G1 X36.317 Y114.659 E.61574
G1 X35.781 Y114.659 E.01688
G1 X50.139 Y129.016 E.63961
G1 X50.139 Y129.552 E.01688
G1 X35.246 Y114.659 E.66348
G1 X34.71 Y114.659 E.01688
G1 X50.139 Y130.088 E.68735
G1 X50.139 Y130.623 E.01688
G1 X34.174 Y114.659 E.71122
G1 X33.638 Y114.659 E.01688
G1 X50.139 Y131.159 E.73509
G1 X50.139 Y131.695 E.01688
G1 X33.602 Y115.158 E.73673
G1 X33.602 Y115.694 E.01688
M73 P5 R29
G1 X50.139 Y132.231 E.73673
G1 X50.139 Y132.767 E.01688
G1 X33.602 Y116.23 E.73673
G1 X33.602 Y116.766 E.01688
G1 X50.139 Y133.302 E.73673
G1 X50.139 Y133.838 E.01688
G1 X33.602 Y117.301 E.73673
G1 X33.602 Y117.837 E.01688
G1 X50.139 Y134.374 E.73673
G1 X50.139 Y134.91 E.01688
G1 X33.602 Y118.373 E.73673
G1 X33.602 Y118.909 E.01688
G1 X50.139 Y135.446 E.73673
G1 X50.139 Y135.981 E.01688
G1 X33.602 Y119.444 E.73673
G1 X33.602 Y119.98 E.01688
M73 P5 R28
G1 X50.139 Y136.517 E.73673
G1 X50.139 Y137.053 E.01688
G1 X33.602 Y120.516 E.73673
G1 X33.602 Y121.052 E.01688
G1 X50.139 Y137.589 E.73673
G1 X50.139 Y138.124 E.01688
G1 X33.602 Y121.588 E.73673
G1 X33.602 Y122.123 E.01688
G1 X50.139 Y138.66 E.73673
G1 X50.139 Y139.196 E.01688
G1 X33.602 Y122.659 E.73673
G1 X33.602 Y123.195 E.01688
G1 X50.139 Y139.732 E.73673
G1 X50.139 Y140.268 E.01688
M73 P6 R28
G1 X33.602 Y123.731 E.73673
G1 X33.602 Y124.267 E.01688
G1 X50.139 Y140.803 E.73673
G1 X50.139 Y141.339 E.01688
G1 X33.602 Y124.802 E.73673
G1 X33.602 Y125.338 E.01688
G1 X50.139 Y141.875 E.73673
G1 X50.139 Y142.411 E.01688
G1 X33.602 Y125.874 E.73673
G1 X33.602 Y126.41 E.01688
G1 X50.139 Y142.947 E.73673
G1 X50.139 Y143.482 E.01688
G1 X33.602 Y126.945 E.73673
G1 X33.602 Y127.481 E.01688
G1 X50.139 Y144.018 E.73673
G1 X50.139 Y144.554 E.01688
G1 X33.602 Y128.017 E.73673
G1 X33.602 Y128.553 E.01688
G1 X50.139 Y145.09 E.73673
G1 X50.139 Y145.625 E.01688
G1 X33.602 Y129.089 E.73673
G1 X33.602 Y129.624 E.01688
G1 X50.139 Y146.161 E.73673
G1 X50.139 Y146.697 E.01688
G1 X33.602 Y130.16 E.73673
G1 X33.602 Y130.696 E.01688
G1 X50.102 Y147.196 E.73509
G1 X49.566 Y147.196 E.01688
G1 X33.602 Y131.232 E.71122
G1 X33.602 Y131.767 E.01688
M73 P7 R28
G1 X49.03 Y147.196 E.68735
G1 X48.494 Y147.196 E.01688
G1 X33.602 Y132.303 E.66348
G1 X33.602 Y132.839 E.01688
G1 X47.959 Y147.196 E.63961
G1 X47.423 Y147.196 E.01688
G1 X33.602 Y133.375 E.61574
G1 X33.602 Y133.911 E.01688
G1 X46.887 Y147.196 E.59187
G1 X46.351 Y147.196 E.01688
G1 X33.602 Y134.446 E.568
G1 X33.602 Y134.982 E.01688
G1 X45.815 Y147.196 E.54413
G1 X45.28 Y147.196 E.01688
G1 X33.602 Y135.518 E.52026
G1 X33.602 Y136.054 E.01688
G1 X44.744 Y147.196 E.49639
G1 X44.208 Y147.196 E.01688
G1 X33.602 Y136.59 E.47252
G1 X33.602 Y137.125 E.01688
G1 X43.672 Y147.196 E.44865
G1 X43.137 Y147.196 E.01688
G1 X33.602 Y137.661 E.42478
G1 X33.602 Y138.197 E.01688
G1 X42.601 Y147.196 E.40091
G1 X42.065 Y147.196 E.01688
G1 X33.602 Y138.733 E.37704
G1 X33.602 Y139.268 E.01688
G1 X41.529 Y147.196 E.35317
G1 X40.993 Y147.196 E.01688
G1 X33.602 Y139.804 E.32931
G1 X33.602 Y140.34 E.01688
G1 X40.458 Y147.196 E.30544
G1 X39.922 Y147.196 E.01688
G1 X33.602 Y140.876 E.28157
G1 X33.602 Y141.412 E.01688
G1 X39.386 Y147.196 E.2577
G1 X38.85 Y147.196 E.01688
G1 X33.602 Y141.947 E.23383
G1 X33.602 Y142.483 E.01688
G1 X38.314 Y147.196 E.20996
G1 X37.779 Y147.196 E.01688
G1 X33.602 Y143.019 E.18609
G1 X33.602 Y143.555 E.01688
G1 X37.243 Y147.196 E.16222
G1 X36.707 Y147.196 E.01688
G1 X33.602 Y144.091 E.13835
G1 X33.602 Y144.626 E.01688
G1 X36.171 Y147.196 E.11448
G1 X35.636 Y147.196 E.01688
G1 X33.602 Y145.162 E.09061
G1 X33.602 Y145.698 E.01688
G1 X35.1 Y147.196 E.06674
G1 X34.564 Y147.196 E.01688
G1 X33.602 Y146.234 E.04287
G1 X33.602 Y146.769 E.01688
G1 X34.198 Y147.366 E.02656
G1 E-3.5 F3600
;WIPE_START
M73 P8 R28
G1 F7200
G1 X33.602 Y146.769 E-.40051
G1 X33.602 Y146.234 E-.2545
G1 X34.564 Y147.196 E-.64644
G1 X34.824 Y147.196 E-.12355
;WIPE_END
G1 E-.075 F3600
G1 X32.819 Y156.859 F9000
G1 E5 F2400
;TYPE:Perimeter
;WIDTH:0.419999
G1 F1200
G1 X49.937 Y156.859 E.53671
G1 X49.937 Y189.976 E1.03838
G1 X32.819 Y189.976 E.53671
G1 X32.819 Y156.919 E1.03649
G1 X32.442 Y156.481 F9000
G1 F1200
G1 X50.314 Y156.481 E.56035
G1 X50.314 Y190.353 E1.06202
G1 X32.442 Y190.353 E.56035
G1 X32.442 Y156.541 E1.06014
G1 X32.065 Y156.104 F9000
G1 F1200
G1 X50.691 Y156.104 E.584
G1 X50.691 Y190.73 E1.08567
G1 X32.065 Y190.73 E.584
G1 X32.065 Y156.164 E1.08379
M73 P8 R27
G1 X31.688 Y155.727 F9000
;TYPE:External perimeter
G1 F1200
G1 X51.068 Y155.727 E.60765
G1 X51.068 Y191.107 E1.10931
G1 X31.688 Y191.107 E.60765
M73 P9 R27
G1 X31.688 Y155.787 E1.10743
G1 X32.063 Y155.867 F9000
G1 E-3.5 F3600
;WIPE_START
G1 F7200
G1 X34.688 Y155.778 E-1.425
;WIPE_END
G1 E-.075 F3600
G1 X49.05 Y156.979 F9000
G1 E5 F2400
;TYPE:Solid infill
;WIDTH:0.421776
G1 F1200
G1 X49.646 Y157.576 E.02657
G1 X49.646 Y158.111 E.01688
G1 X48.684 Y157.149 E.04288
G1 X48.148 Y157.149 E.01688
G1 X49.646 Y158.647 E.06675
G1 X49.646 Y159.183 E.01688
G1 X47.612 Y157.149 E.09062
G1 X47.077 Y157.149 E.01688
G1 X49.646 Y159.719 E.11449
G1 X49.646 Y160.255 E.01688
G1 X46.541 Y157.149 E.13836
G1 X46.005 Y157.149 E.01688
G1 X49.646 Y160.79 E.16223
G1 X49.646 Y161.326 E.01688
G1 X45.469 Y157.149 E.18609
G1 X44.933 Y157.149 E.01688
G1 X49.646 Y161.862 E.20996
G1 X49.646 Y162.398 E.01688
G1 X44.398 Y157.149 E.23383
G1 X43.862 Y157.149 E.01688
G1 X49.646 Y162.933 E.2577
G1 X49.646 Y163.469 E.01688
G1 X43.326 Y157.149 E.28157
G1 X42.79 Y157.149 E.01688
G1 X49.646 Y164.005 E.30544
G1 X49.646 Y164.541 E.01688
G1 X42.255 Y157.149 E.32931
G1 X41.719 Y157.149 E.01688
G1 X49.646 Y165.077 E.35318
G1 X49.646 Y165.612 E.01688
G1 X41.183 Y157.149 E.37705
G1 X40.647 Y157.149 E.01688
G1 X49.646 Y166.148 E.40092
G1 X49.646 Y166.684 E.01688
G1 X40.111 Y157.149 E.42479
G1 X39.576 Y157.149 E.01688
G1 X49.646 Y167.22 E.44866
G1 X49.646 Y167.755 E.01688
G1 X39.04 Y157.149 E.47253
G1 X38.504 Y157.149 E.01688
G1 X49.646 Y168.291 E.4964
G1 X49.646 Y168.827 E.01688
G1 X37.968 Y157.149 E.52027
G1 X37.433 Y157.149 E.01688
G1 X49.646 Y169.363 E.54414
G1 X49.646 Y169.899 E.01688
G1 X36.897 Y157.149 E.56801
G1 X36.361 Y157.149 E.01688
G1 X49.646 Y170.434 E.59188
G1 X49.646 Y170.97 E.01688
G1 X35.825 Y157.149 E.61574
G1 X35.289 Y157.149 E.01688
M73 P10 R27
G1 X49.646 Y171.506 E.63961
G1 X49.646 Y172.042 E.01688
G1 X34.754 Y157.149 E.66348
G1 X34.218 Y157.149 E.01688
G1 X49.646 Y172.578 E.68735
G1 X49.646 Y173.113 E.01688
G1 X33.682 Y157.149 E.71122
G1 X33.146 Y157.149 E.01688
G1 X49.646 Y173.649 E.73509
G1 X49.646 Y174.185 E.01688
G1 X33.11 Y157.648 E.73673
G1 X33.11 Y158.184 E.01688
G1 X49.646 Y174.721 E.73673
G1 X49.646 Y175.256 E.01688
G1 X33.11 Y158.72 E.73673
G1 X33.11 Y159.255 E.01688
G1 X49.646 Y175.792 E.73673
G1 X49.646 Y176.328 E.01688
G1 X33.11 Y159.791 E.73673
G1 X33.11 Y160.327 E.01688
G1 X49.646 Y176.864 E.73673
G1 X49.646 Y177.4 E.01688
G1 X33.11 Y160.863 E.73673
G1 X33.11 Y161.399 E.01688
G1 X49.646 Y177.935 E.73673
G1 X49.646 Y178.471 E.01688
G1 X33.11 Y161.934 E.73673
G1 X33.11 Y162.47 E.01688
G1 X49.646 Y179.007 E.73673
G1 X49.646 Y179.543 E.01688
G1 X33.11 Y163.006 E.73673
G1 X33.11 Y163.542 E.01688
M73 P11 R27
G1 X49.646 Y180.078 E.73673
G1 X49.646 Y180.614 E.01688
G1 X33.11 Y164.077 E.73673
G1 X33.11 Y164.613 E.01688
G1 X49.646 Y181.15 E.73673
G1 X49.646 Y181.686 E.01688
G1 X33.11 Y165.149 E.73673
G1 X33.11 Y165.685 E.01688
G1 X49.646 Y182.222 E.73673
G1 X49.646 Y182.757 E.01688
G1 X33.11 Y166.221 E.73673
G1 X33.11 Y166.756 E.01688
G1 X49.646 Y183.293 E.73673
G1 X49.646 Y183.829 E.01688
G1 X33.11 Y167.292 E.73673
G1 X33.11 Y167.828 E.01688
G1 X49.646 Y184.365 E.73673
G1 X49.646 Y184.901 E.01688
G1 X33.11 Y168.364 E.73673
G1 X33.11 Y168.899 E.01688
G1 X49.646 Y185.436 E.73673
G1 X49.646 Y185.972 E.01688
G1 X33.11 Y169.435 E.73673
G1 X33.11 Y169.971 E.01688
G1 X49.646 Y186.508 E.73673
G1 X49.646 Y187.044 E.01688
G1 X33.11 Y170.507 E.73673
G1 X33.11 Y171.043 E.01688
G1 X49.646 Y187.579 E.73673
G1 X49.646 Y188.115 E.01688
M73 P12 R27
G1 X33.11 Y171.578 E.73673
G1 X33.11 Y172.114 E.01688
M73 P12 R26
G1 X49.646 Y188.651 E.73673
G1 X49.646 Y189.187 E.01688
G1 X33.11 Y172.65 E.73673
G1 X33.11 Y173.186 E.01688
G1 X49.61 Y189.686 E.73509
G1 X49.074 Y189.686 E.01688
G1 X33.11 Y173.722 E.71122
G1 X33.11 Y174.257 E.01688
G1 X48.538 Y189.686 E.68735
G1 X48.002 Y189.686 E.01688
G1 X33.11 Y174.793 E.66348
G1 X33.11 Y175.329 E.01688
G1 X47.466 Y189.686 E.63961
G1 X46.931 Y189.686 E.01688
G1 X33.11 Y175.865 E.61574
G1 X33.11 Y176.4 E.01688
G1 X46.395 Y189.686 E.59187
G1 X45.859 Y189.686 E.01688
G1 X33.11 Y176.936 E.568
G1 X33.11 Y177.472 E.01688
G1 X45.323 Y189.686 E.54413
G1 X44.788 Y189.686 E.01688
G1 X33.11 Y178.008 E.52026
G1 X33.11 Y178.544 E.01688
G1 X44.252 Y189.686 E.49639
G1 X43.716 Y189.686 E.01688
G1 X33.11 Y179.079 E.47252
G1 X33.11 Y179.615 E.01688
G1 X43.18 Y189.686 E.44865
G1 X42.644 Y189.686 E.01688
G1 X33.11 Y180.151 E.42478
G1 X33.11 Y180.687 E.01688
G1 X42.109 Y189.686 E.40091
G1 X41.573 Y189.686 E.01688
M73 P13 R26
G1 X33.11 Y181.222 E.37704
G1 X33.11 Y181.758 E.01688
G1 X41.037 Y189.686 E.35317
G1 X40.501 Y189.686 E.01688
G1 X33.11 Y182.294 E.32931
G1 X33.11 Y182.83 E.01688
G1 X39.966 Y189.686 E.30544
G1 X39.43 Y189.686 E.01688
G1 X33.11 Y183.366 E.28157
G1 X33.11 Y183.901 E.01688
G1 X38.894 Y189.686 E.2577
G1 X38.358 Y189.686 E.01688
G1 X33.11 Y184.437 E.23383
G1 X33.11 Y184.973 E.01688
G1 X37.822 Y189.686 E.20996
G1 X37.287 Y189.686 E.01688
G1 X33.11 Y185.509 E.18609
G1 X33.11 Y186.045 E.01688
G1 X36.751 Y189.686 E.16222
G1 X36.215 Y189.686 E.01688
G1 X33.11 Y186.58 E.13835
G1 X33.11 Y187.116 E.01688
G1 X35.679 Y189.686 E.11448
G1 X35.143 Y189.686 E.01688
G1 X33.11 Y187.652 E.09061
G1 X33.11 Y188.188 E.01688
G1 X34.608 Y189.686 E.06674
G1 X34.072 Y189.686 E.01688
G1 X33.11 Y188.723 E.04287
G1 X33.11 Y189.259 E.01688
G1 X33.706 Y189.855 E.02656
M106 S255
;LAYER_CHANGE
;Z:0.4
;HEIGHT:0.2
;BEFORE_LAYER_CHANGE
G92 E0
;0.4


G1 E-3.5 F3600
;WIPE_START
G1 F7200
G1 X33.11 Y189.259 E-.40051
G1 X33.11 Y188.723 E-.2545
G1 X34.072 Y189.686 E-.64644
G1 X34.332 Y189.686 E-.12355
;WIPE_END
G1 E-.075 F3600
G1 Z.4 F9000
;AFTER_LAYER_CHANGE
;0.4
G1 X34.332 Y194.794
G1 E5 F2400
;TYPE:Skirt/Brim
;WIDTH:0.42
G1 X31.378 Y194.794 E.09262
G1 X29.795 Y194.4 E.05115
G1 X28.581 Y193.31 E.05115
G1 X28.001 Y191.417 E.06207
G1 X28.001 Y155.378 E1.12998
G1 X28.493 Y112.888 E1.33233
G1 X28.906 Y111.31 E.05115
G1 X30.01 Y110.109 E.05115
G1 X31.87 Y109.55 E.0609
G1 X51.87 Y109.55 E.62709
G1 X53.453 Y109.945 E.05115
G1 X54.667 Y111.035 E.05115
G1 X55.247 Y112.928 E.06207
G1 X55.247 Y148.967 E1.12998
G1 X54.755 Y191.456 E1.33233
G1 X54.342 Y193.035 E.05115
G1 X53.238 Y194.236 E.05115
G1 X51.378 Y194.794 E.0609
G1 X34.392 Y194.794 E.53258
G1 E-3.5 F3600
;WIPE_START
G1 F7200
G1 X31.392 Y194.794 E-1.425
;WIPE_END
G1 E-.075 F3600
G1 X33.261 Y147.536 F9000
G1 E5 F2400
;TYPE:Perimeter
;WIDTH:0.439999
G1 X33.261 Y114.319 E1.09675
G1 X50.479 Y114.319 E.56848
G1 X50.479 Y147.536 E1.09675
G1 X33.321 Y147.536 E.56649
G1 X32.864 Y147.933 F9000
G1 F2400
G1 X32.864 Y113.922 E1.12297
G1 X50.876 Y113.922 E.5947
G1 X50.876 Y147.933 E1.12297
G1 X32.924 Y147.933 E.59272
M73 P14 R26
G1 X32.467 Y148.33 F9000
G1 F2400
G1 X32.467 Y113.525 E1.14919
G1 X51.273 Y113.525 E.62092
G1 X51.273 Y148.33 E1.14919
G1 X32.527 Y148.33 E.61894
G1 X32.08 Y148.718 F9000
;TYPE:External perimeter
;WIDTH:0.419999
G1 F1500
G1 X32.08 Y113.138 E1.11558
G1 X51.66 Y113.138 E.61392
G1 X51.66 Y148.718 E1.11558
G1 X32.14 Y148.718 E.61203
G1 X32.147 Y148.323 F9000
G1 E-3.5 F3600
;WIPE_START
G1 F7200
G1 X32.135 Y145.718 E-1.425
;WIPE_END
G1 E-.075 F3600
